icons/icn_carpeta.svg

<svg width="24" xmlns="http://www.w3.org/2000/svg" height="24" id="screenshot-7f4951e7-eba4-8056-8006-51ce53cb3694" viewBox="0 0 24 24" xmlns:xlink="http://www.w3.org/1999/xlink" fill="none" version="1.1"><g id="shape-7f4951e7-eba4-8056-8006-51ce53cb3694"><g class="frame-container-wrapper"><g class="frame-container-blur"><g class="frame-container-shadows"><g fill="none"><g class="fills" id="fills-7f4951e7-eba4-8056-8006-51ce53cb3694"><rect rx="0" ry="0" x="0" y="0" width="24" height="24.000000000000455" transform="matrix(1, 0, 0, 1, 0, 0)" class="frame-background"/></g><g class="frame-children"><g id="shape-796dcf21-9a76-80bf-8006-51ced7648093" rx="0" ry="0"><g id="shape-7f4951e7-eba4-8056-8006-51ce29a0647c" style="opacity: 1;"><g class="fills" id="fills-7f4951e7-eba4-8056-8006-51ce29a0647c"><path d="M3.0000905990600586,4.261566638946533C2.5970144271850586,4.263153553009033,2.2708425521850586,4.589447498321533,2.2691335678100586,4.992401599884033L2.2691335678100586,20.007171630859375C2.2708425521850586,20.410125732421875,2.5970144271850586,20.736419677734375,3.0000905990600586,20.738006591796875L20.000577926635742,20.738006591796875C20.403409957885742,20.736419677734375,20.729825973510742,20.410125732421875,20.731290817260742,20.007171630859375L20.731290817260742,7.996796131134033C20.732511520385742,7.801971912384033,20.656095504760742,7.614593982696533,20.519132614135742,7.476166248321533C20.381925582885742,7.337616443634033,20.195402145385742,7.259369373321533,20.000577926635742,7.258636951446533L11.998625755310059,7.258636951446533C12.003508567810059,7.258636951446533,12.084807395935059,7.338959217071533,11.998625755310059,7.177460193634033C11.912444114685059,7.015839099884033,11.810393333435059,6.681366443634033,11.710783958435059,6.306366443634033C11.610930442810059,5.931366443634033,11.511076927185059,5.518890857696533,11.297209739685059,5.117889881134033C11.083586692810059,4.717010974884033,10.603850364685059,4.261566638946533,9.998137474060059,4.261566638946533ZM3.7308034896850586,5.730560779571533L9.998137474060059,5.730560779571533C9.993254661560059,5.730560779571533,9.919280052185059,5.650238513946533,10.005705833435059,5.811737537384033C10.091887474060059,5.973358631134033,10.193694114685059,6.307831287384033,10.293547630310059,6.682831287384033C10.393401145935059,7.057831287384033,10.485686302185059,7.470428943634033,10.699553489685059,7.871307849884033C10.913176536560059,8.272309303283691,11.393157005310059,8.727631568908691,11.998625755310059,8.727631568908691L19.269865036010742,8.727631568908691L19.269865036010742,19.276336669921875L3.7310476303100586,19.276336669921875Z" style="display: inline; stroke-linecap: round; stroke-linejoin: round; fill: rgb(0, 0, 0); fill-opacity: 1;"/></g></g><g id="shape-7f4951e7-eba4-8056-8006-51ce29a08804" style="opacity: 1;"><g class="fills" id="fills-7f4951e7-eba4-8056-8006-51ce29a08804"><path d="M13.999114036560059,4.269012928009033C13.596037864685059,4.270355701446533,13.269621849060059,4.596771717071533,13.268157005310059,4.999725818634033C13.266936302185059,5.194672107696533,13.343352317810059,5.382050037384033,13.480315208435059,5.520599842071533C13.617522239685059,5.659027576446533,13.804045677185059,5.737274646759033,13.999114036560059,5.738007068634033L18.000089645385742,5.738007068634033C18.194913864135742,5.737274646759033,18.381681442260742,5.659027576446533,18.518644332885742,5.520599842071533C18.655851364135742,5.382050037384033,18.732267379760742,5.194672107696533,18.730802536010742,4.999725818634033C18.729581832885742,4.596771717071533,18.403165817260742,4.270355701446533,18.000089645385742,4.269012928009033Z" style="display: inline; stroke-linecap: round; stroke-linejoin: round; fill: rgb(0, 0, 0); fill-opacity: 1;"/></g></g></g></g></g></g></g></g></g></svg>

<svg fill="none" viewBox="0 0 24 24"><g class="frame-container-wrapper"><g class="frame-container-blur"><g class="frame-container-shadows"><g class="fills"><rect width="24" height="24" class="frame-background" rx="0" ry="0"/></g><g class="frame-children"><path fill="#000" d="M3 4.2616a.7339.7339 0 0 0-.7309.7308v15.0148a.7339.7339 0 0 0 .731.7308h17.0005a.7336.7336 0 0 0 .7307-.7308V7.9968a.7339.7339 0 0 0-.7307-.7382h-8.002c.005 0 .0862.0804 0-.0811-.0862-.1617-.1882-.4961-.2878-.8711-.0999-.375-.1997-.7875-.4136-1.1885-.2136-.4009-.6933-.8563-1.299-.8563Zm.7308 1.469h6.2673c-.0048 0-.0788-.0804.0076.0811.0862.1617.188.4961.2878.8711.0999.375.1922.7876.406 1.1885.2137.401.6937.8563 1.2991.8563H19.27v10.5487H3.731Z" class="fills"/><path fill="#000" d="M13.9991 4.269a.7334.7334 0 0 0-.731.7307.7345.7345 0 0 0 .2122.5209.7342.7342 0 0 0 .5188.2174h4.001a.7336.7336 0 0 0 .7307-.7383.733.733 0 0 0-.7307-.7307Z" class="fills"/></g></g></g></g></svg>
